X:1
T:Adoramus te, Christe - Perti
T:James Gibb editions
T:#
%%score [ 1 2 3 4 ]
L:1/8
Q:1/4=100
M:4/4
K:C
V:1 treble nm="Soprano" snm="S"
V:2 treble nm="Alto" snm="A"
V:3 treble-8 nm="Tenor" snm="T"
V:4 bass nm="Bass" snm="B"
V:1
 ^G6 B2- | B2 (A^G A4) |"^Adoramus te, Christe" ^G6 B2 | %3
w: A- do\-|* ra\- * *|mus te,|
 (B4"^Giacomo Antonio Perti\n(1661-1756)" A4) | ^G4 z4 | =G6 E2 | A8 | G2 G2 (c4- | %8
w: Chri\- *|ste,|a- do-|ra-|mus te, Chri\-|
[M:4/4] c2 BA B4) | c6 c2 | c2 c2 A2 GG | A4 D4 | G4 C2 c2 | AAAB (c3 B | A4) B2 d2- | %15
w: |ste et|be- ne- di- ci- mus|ti- bi:|Qui- a per|san- ctam cru- cem tu\- *|* am re\-|
 d2 c2 BG (c2- | c2 B2) c2 z2 | c4 G4 | z4 d4 | G4 z2 c2 | AAAB (c3 B | A2) G2 z2 c2- | c2 B2 A4 | %23
w: * de- mi- sti mun\-|* * dum,|qui- a,|qui-|a per|san- ctam cru- cem tu\- *|* am re\-|* de- mi-|
 ^G2 (A4 !courtesy!^G2) | A4 z4 | z2 c4 B2 | e4 d4 | z2 d4 c2 | B2 A2 ^G2 A2 | z2 e4 d2 | %30
w: sti mun\- *|dum,|re- de-|mi- sti,|re- de-|mi- sti mun- dum,|re- de-|
 c2 B2 A3 B | %31
w: mi- sti mun- dum,|
[Q:1/4=99] (c[Q:1/4=99]d)[Q:1/4=98] (e[Q:1/4=98]d/[Q:1/4=97]c/)[Q:1/4=97] (B[Q:1/4=97]A)[Q:1/4=96] ^G2 | %32
w: re\- * de\- * * mi\- * sti|
[Q:1/4=95] (A2[Q:1/4=93] B4[Q:1/4=92] A[Q:1/4=91]^G |[Q:1/4=89] A8) |[Q:1/4=85] !fermata!^G8 |] %35
w: mun\- * * *||dum.|
V:2
 E6 E2 | E8 | E2 B,2 (E4- | E2 DC D4) | E4 z4 | E6 G2- | G2 (FE F4) | E6 G2 |[M:4/4] F8 | %9
w: A- do-|ra-|mus te, Chri\-||ste,|a- do\-|* ra\- * *|mus te,|Chri-|
 E2 E2 E2 G2 | A2 AG (^F2 G2- | G2 ^F2) G4 | z8 | z8 | D4 G,2 G2 | EEE^F (G2 E2 | D4) E2 G2- | %17
w: ste et be- ne-|di- ci- mus ti\- *|* * bi:|||Qui- a per|san- ctam cru- cem tu\- *|* am re\-|
 G2 F2 EC (G2- | G2 ^F2) G4 | z4 z2 G2- | G2 =F2 E4 | ^F2 G4 F2 | z2 G4 ^F2 | E2 E2 z4 | %24
w: * de- mi- sti mun\-|* * dum,|re\-|* de- mi-|sti mun- dum,|re- de-|mi- sti,|
 E4 A,2 A2 | EEE^F G4- | G4 G4 | z4 z2 G2- | G2 ^F2 E4 | E4 A,4 | E4 E4 | E4 E4 | E4 E4- | E8 | %34
w: qui- a per|san- ctam cru- cem tu\-|* am|re\-|* de- mi-|sti mun-|dum, re-|de- mi-|sti mun\-||
 !fermata!E8 |] %35
w: dum.|
V:3
 B6 ^G2 | c8 | B6 ^G2 | A8 | B4 z4 | c6 c2 | c8 | c6 e2 |[M:4/4][K:treble-8] d8 | G4 z2 e2 | %10
w: A- do-|ra-|mus te,|Chri-|ste,|a- do-|ra-|mus te,|Chri-|ste et|
 e2 e2 d2 dd | c4 B4 | z8 | z8 | z8 | z8 | G4 C2 c2 | AAAB (c3 B | A4) B2 d2- | d2 c2 B2 e2 | (c8 | %21
w: be- ne- di- ci- mus|ti- bi:|||||Qui- a per|san- ctam cru- cem tu\- *|* am re\-|* de- mi- sti|mun\-|
 d4 c4) | d4 z2 d2- | d2 c2 B4 | c2 e4 d2 | c2 A2 z2 d2- | d2 c2 c2 B2 | A4 G4 | z2 d4 c2 | %29
w: |dum, re\-|* de- mi-|sti, re- de-|mi- sti, re\-|* de- mi- sti|mun- dum,|re- de-|
 (B4 c)B A2- | A2 ^G2 (AB) (cd) | e2 A2 (^GA B2 | c2 ed c4- | c8) | !fermata!B8 |] %35
w: mi\- * sti mun\-|* dum, re\- * de\- *|mi- sti mun\- * *|||dum.|
V:4
 E,6 E,2 | A,,8 | E,6 E,2 | F,8 | E,4 z4 | C,6 C,2 | F,,8 | C,6 C,2 |[M:4/4] D,8 | C,4 z2 C2 | %10
w: A- do-|ra-|mus te,|Chri-|ste,|a- do-|ra-|mus te,|Chri-|ste et|
 C2 C2 C2 B,B, | A,4 G,4 | z8 | z8 | z8 | z8 | z8 | z8 | D,4 G,,2 G,2 | E,E,E,^F, (G,2 E,2 | %20
w: be- ne- di- ci- mus|ti- bi:|||||||Qui- a per|san- ctam cru- cem tu\- *|
 =F,4) C,2 C2- | C2 B,2 A,4 | G,4 z4 | E,8 | A,,2 A,2 ^F,F,F,^G, | A,4 =G,4 | C,4 G,,2 G,2- | %27
w: * am re\-|* de- mi-|sti,|qui-|a per san- ctam cru- cem|tu- am,|qui- a re\-|
 G,2 ^F,2 E,4 | D,4 z2 (A,2- | A,2 =G,2) =F,4 | E,3 D, (C,B,,) A,,2- | A,, (B,,C,)D, E,3 D, | %32
w: * de- mi-|sti, re\-|* * de-|mi- sti mun\- * dum,|* re\- * de- mi- sti|
 (C,2 ^G,,2 A,,4- | A,,8) | !fermata!E,8 |] %35
w: mun\- * *||dum.|

